X:99
T: Gute Meinung (2-1) S. 11
N: P0874
O: Lothringen
S: PINCK, Louis: Verklingende Weisen, Bd 2, Metz 1928]
R: geistliche, religise Lieder]
M: 4/4
L: 1/16
K: Eb
 | E2F2G2A2B4B4 | c2d2e2c2c2B2B4 |
B2A2c2B2B4E2F2 | G2A2G2F2F2E2E4 |
G6B2B2A2A4 | G2E2B2G2G2F2F4 |
G6B2B2A2A4 | G2E2B2G2G2F2F4 |
E2F2G2A2B4B4 | c2d2e2ccB8 |
B2A2c2B2B4E2F2 | G2A2G2FFE4z4 |
E2F2G2A2B4B4 | c2d2e2ccB8 |
B2A2c2B2B4E2F2 | G2A2G2FFE4z4

@@@ Tune index: 7649
